flaticon/travel/bellhop.svg

<svg xmlns="http://www.w3.org/2000/svg" width="32" height="32" viewBox="0 0 24 24">
    <path d="M19.601562 21.601562C19.601562 21.820312 19.421875 22 19.199219 22 18.980469 22 18.800781 21.820312 18.800781 21.601562 18.800781 21.378906 18.980469 21.199219 19.199219 21.199219 19.421875 21.199219 19.601562 21.378906 19.601562 21.601562zM5.199219 21.601562C5.199219 21.820312 5.019531 22 4.800781 22 4.578125 22 4.398438 21.820312 4.398438 21.601562 4.398438 21.378906 4.578125 21.199219 4.800781 21.199219 5.019531 21.199219 5.199219 21.378906 5.199219 21.601562zM5.199219 21.601562"/>
    <path d="M 22.398438 19.199219 L 22.398438 7.75 C 22.398438 3.917969 19.28125 0.800781 15.449219 0.800781 L 15.199219 0.800781 L 15.199219 0 L 8.800781 0 L 8.800781 0.800781 L 8.550781 0.800781 C 4.71875 0.800781 1.601562 3.917969 1.601562 7.75 L 1.601562 19.199219 L 0.800781 19.199219 L 0.800781 21.601562 L 2.398438 21.601562 C 2.398438 22.921875 3.476562 24 4.800781 24 C 6.125 24 7.199219 22.921875 7.199219 21.601562 L 16.800781 21.601562 C 16.800781 22.921875 17.875 24 19.199219 24 C 20.523438 24 21.601562 22.921875 21.601562 21.601562 L 23.199219 21.601562 L 23.199219 19.199219 Z M 14.398438 0.800781 L 14.398438 1.601562 L 9.601562 1.601562 L 9.601562 0.800781 Z M 2.398438 7.75 C 2.398438 4.359375 5.160156 1.601562 8.550781 1.601562 L 8.800781 1.601562 L 8.800781 2.398438 L 15.199219 2.398438 L 15.199219 1.601562 L 15.449219 1.601562 C 18.839844 1.601562 21.601562 4.359375 21.601562 7.75 L 21.601562 19.199219 L 20.398438 19.199219 L 20.398438 14.261719 C 20.398438 13.898438 20.101562 13.601562 19.738281 13.601562 L 18.398438 13.601562 L 18.398438 8.664062 C 18.398438 8.296875 18.101562 8 17.738281 8 L 6.664062 8 C 6.296875 8 6 8.296875 6 8.664062 L 6 13.601562 L 4.664062 13.601562 C 4.296875 13.601562 4 13.898438 4 14.261719 L 4 19.199219 L 2.398438 19.199219 Z M 4.800781 19.199219 L 4.800781 17.199219 L 8.398438 17.199219 L 8.398438 18 L 16 18 L 16 17.199219 L 19.601562 17.199219 L 19.601562 19.199219 Z M 17.601562 10.800781 L 16 10.800781 L 16 10 L 8.398438 10 L 8.398438 10.800781 L 6.800781 10.800781 L 6.800781 8.800781 L 17.601562 8.800781 Z M 15.199219 11.601562 L 9.199219 11.601562 L 9.199219 10.800781 L 15.199219 10.800781 Z M 6.800781 11.601562 L 8.398438 11.601562 L 8.398438 12.398438 L 16 12.398438 L 16 11.601562 L 17.601562 11.601562 L 17.601562 13.601562 L 6.800781 13.601562 Z M 18.398438 14.398438 L 19.601562 14.398438 L 19.601562 16.398438 L 16 16.398438 L 16 15.601562 L 8.398438 15.601562 L 8.398438 16.398438 L 4.800781 16.398438 L 4.800781 14.398438 Z M 15.199219 17.199219 L 9.199219 17.199219 L 9.199219 16.398438 L 15.199219 16.398438 Z M 2.539062 20.800781 L 1.601562 20.800781 L 1.601562 20 L 3.011719 20 C 3.007812 20.003906 3.003906 20.011719 3 20.015625 C 2.910156 20.121094 2.828125 20.230469 2.753906 20.347656 C 2.746094 20.363281 2.734375 20.378906 2.726562 20.398438 C 2.65625 20.515625 2.597656 20.640625 2.550781 20.773438 C 2.546875 20.78125 2.539062 20.789062 2.539062 20.800781 Z M 4.800781 23.199219 C 3.917969 23.199219 3.199219 22.480469 3.199219 21.601562 C 3.199219 21.386719 3.242188 21.179688 3.320312 20.992188 C 3.332031 20.964844 3.347656 20.941406 3.359375 20.914062 C 3.390625 20.851562 3.421875 20.789062 3.457031 20.734375 C 3.476562 20.703125 3.5 20.675781 3.523438 20.644531 C 3.558594 20.597656 3.597656 20.550781 3.636719 20.507812 C 3.664062 20.476562 3.695312 20.449219 3.726562 20.421875 C 3.765625 20.386719 3.808594 20.351562 3.851562 20.316406 C 3.886719 20.292969 3.921875 20.269531 3.957031 20.246094 C 4.003906 20.214844 4.054688 20.191406 4.101562 20.167969 C 4.140625 20.148438 4.179688 20.128906 4.21875 20.113281 C 4.273438 20.089844 4.332031 20.074219 4.390625 20.058594 C 4.429688 20.050781 4.464844 20.039062 4.5 20.03125 C 4.597656 20.011719 4.695312 20 4.800781 20 C 4.902344 20 5.003906 20.011719 5.101562 20.03125 C 5.136719 20.039062 5.171875 20.050781 5.207031 20.058594 C 5.265625 20.074219 5.324219 20.089844 5.382812 20.113281 C 5.421875 20.128906 5.460938 20.148438 5.496094 20.167969 C 5.546875 20.191406 5.59375 20.214844 5.640625 20.246094 C 5.675781 20.269531 5.710938 20.292969 5.746094 20.316406 C 5.792969 20.351562 5.835938 20.386719 5.875 20.421875 C 5.90625 20.449219 5.933594 20.476562 5.960938 20.507812 C 6.003906 20.550781 6.042969 20.597656 6.078125 20.648438 C 6.097656 20.675781 6.121094 20.703125 6.140625 20.734375 C 6.179688 20.792969 6.210938 20.851562 6.242188 20.914062 C 6.253906 20.941406 6.269531 20.964844 6.277344 20.992188 C 6.355469 21.179688 6.398438 21.386719 6.398438 21.601562 C 6.398438 22.480469 5.683594 23.199219 4.800781 23.199219 Z M 16.9375 20.800781 L 7.0625 20.800781 C 7.058594 20.789062 7.054688 20.78125 7.050781 20.773438 C 7 20.640625 6.941406 20.515625 6.875 20.398438 C 6.863281 20.378906 6.855469 20.363281 6.84375 20.347656 C 6.773438 20.230469 6.691406 20.121094 6.597656 20.015625 C 6.59375 20.011719 6.589844 20.003906 6.585938 20 L 17.414062 20 C 17.410156 20.003906 17.40625 20.011719 17.402344 20.015625 C 17.308594 20.121094 17.226562 20.230469 17.15625 20.347656 C 17.144531 20.363281 17.136719 20.378906 17.125 20.398438 C 17.058594 20.515625 17 20.640625 16.949219 20.773438 C 16.945312 20.78125 16.941406 20.789062 16.9375 20.800781 Z M 19.199219 23.199219 C 18.316406 23.199219 17.601562 22.480469 17.601562 21.601562 C 17.601562 21.386719 17.644531 21.179688 17.722656 20.992188 C 17.730469 20.964844 17.746094 20.941406 17.761719 20.914062 C 17.789062 20.851562 17.820312 20.789062 17.859375 20.734375 C 17.878906 20.703125 17.902344 20.675781 17.921875 20.644531 C 17.957031 20.597656 17.996094 20.550781 18.039062 20.507812 C 18.066406 20.476562 18.09375 20.449219 18.125 20.421875 C 18.164062 20.386719 18.207031 20.351562 18.253906 20.316406 C 18.289062 20.292969 18.324219 20.269531 18.359375 20.246094 C 18.40625 20.214844 18.453125 20.191406 18.503906 20.167969 C 18.539062 20.148438 18.578125 20.128906 18.617188 20.113281 C 18.675781 20.089844 18.734375 20.074219 18.792969 20.058594 C 18.828125 20.050781 18.863281 20.039062 18.898438 20.03125 C 18.996094 20.011719 19.097656 20 19.199219 20 C 19.304688 20 19.402344 20.011719 19.5 20.03125 C 19.539062 20.039062 19.570312 20.050781 19.609375 20.058594 C 19.667969 20.074219 19.726562 20.089844 19.78125 20.113281 C 19.820312 20.128906 19.859375 20.148438 19.898438 20.167969 C 19.945312 20.191406 19.996094 20.214844 20.042969 20.246094 C 20.078125 20.269531 20.113281 20.292969 20.148438 20.316406 C 20.191406 20.351562 20.234375 20.386719 20.273438 20.421875 C 20.304688 20.449219 20.335938 20.476562 20.363281 20.507812 C 20.402344 20.550781 20.441406 20.597656 20.476562 20.648438 C 20.5 20.675781 20.523438 20.703125 20.542969 20.734375 C 20.578125 20.792969 20.609375 20.851562 20.640625 20.914062 C 20.652344 20.941406 20.667969 20.964844 20.679688 20.992188 C 20.757812 21.179688 20.800781 21.386719 20.800781 21.601562 C 20.800781 22.480469 20.082031 23.199219 19.199219 23.199219 Z M 22.398438 20.800781 L 21.460938 20.800781 C 21.460938 20.789062 21.453125 20.78125 21.449219 20.773438 C 21.402344 20.640625 21.34375 20.515625 21.273438 20.398438 C 21.265625 20.378906 21.253906 20.363281 21.246094 20.347656 C 21.171875 20.230469 21.089844 20.121094 21 20.015625 C 20.996094 20.011719 20.992188 20.003906 20.988281 20 L 22.398438 20 Z M 22.398438 20.800781"/>
</svg>

<svg xmlns="http://www.w3.org/2000/svg" width="32" height="32" viewBox="0 0 24 24">
    <path d="M19.602 21.602a.401.401 0 1 1-.802-.005.401.401 0 0 1 .802.005zm0 0M5.2 21.602a.4.4 0 1 1-.801-.004.4.4 0 0 1 .8.004zm0 0"/>
    <path d="M22.398 19.2V7.75A6.957 6.957 0 0 0 15.45.8h-.25V0H8.801v.8h-.25A6.957 6.957 0 0 0 1.6 7.75V19.2h-.8v2.402h1.597A2.405 2.405 0 0 0 4.801 24a2.401 2.401 0 0 0 2.398-2.398h9.602A2.401 2.401 0 0 0 19.199 24a2.405 2.405 0 0 0 2.403-2.398h1.597v-2.403zm-8-18.4v.802H9.602V.8zm-12 6.95c0-3.39 2.762-6.148 6.153-6.148h.25v.796h6.398v-.796h.25c3.39 0 6.153 2.757 6.153 6.148V19.2h-1.204v-4.938a.662.662 0 0 0-.66-.66h-1.34V8.664a.663.663 0 0 0-.66-.664H6.664A.664.664 0 0 0 6 8.664v4.938H4.664a.663.663 0 0 0-.664.66v4.937H2.398zM4.801 19.2v-2h3.597v.8H16v-.8h3.602v2zm12.8-8.4H16V10H8.398v.8H6.801v-2h10.8zm-2.402.802h-6V10.8h6zm-8.398 0h1.597v.796H16v-.796h1.602v2H6.8zm11.597 2.796h1.204v2H16v-.796H8.398v.796H4.801v-2zM15.2 17.2h-6v-.8h6zM2.54 20.801h-.937V20h1.41L3 20.016c-.09.105-.172.214-.246.332-.008.015-.02.03-.027.05-.07.118-.13.243-.176.375-.004.008-.012.016-.012.028zm2.262 2.398a1.603 1.603 0 0 1-1.602-1.597c0-.215.043-.422.121-.61.012-.027.028-.05.04-.078.03-.062.062-.125.097-.18.02-.03.043-.058.066-.09.036-.046.075-.093.114-.136.027-.031.058-.059.09-.086.039-.035.082-.07.125-.106l.105-.07c.047-.031.098-.055.145-.078.039-.02.078-.04.117-.055.054-.023.113-.039.172-.054.039-.008.074-.02.109-.028a1.51 1.51 0 0 1 .602 0c.035.008.07.02.105.028a1.012 1.012 0 0 1 .29.11c.05.022.097.046.144.077l.105.07c.047.036.09.07.129.106a.892.892 0 0 1 .086.086c.043.043.082.09.117.14.02.028.043.055.063.086.039.059.07.118.101.18.012.027.028.05.035.078A1.6 1.6 0 0 1 4.8 23.2zm12.136-2.398H7.063a2.755 2.755 0 0 0-.188-.402 2.21 2.21 0 0 0-.277-.383c-.003-.004-.007-.012-.011-.016h10.828l-.012.016a2.21 2.21 0 0 0-.246.332 2.755 2.755 0 0 0-.219.453zm2.262 2.398a1.6 1.6 0 0 1-1.476-2.207c.007-.027.023-.05.039-.078a.996.996 0 0 1 .097-.18c.02-.03.043-.058.063-.09.035-.046.074-.093.117-.136a.892.892 0 0 1 .086-.086c.04-.035.082-.07.129-.106l.105-.07c.047-.031.094-.055.145-.078a1.012 1.012 0 0 1 .289-.11c.035-.007.07-.019.105-.027a1.51 1.51 0 0 1 .602 0c.04.008.07.02.11.028.058.015.117.03.171.054.04.016.078.035.117.055.047.023.098.047.145.078l.105.07c.043.036.086.07.125.106a1.37 1.37 0 0 1 .203.227.718.718 0 0 1 .067.085c.035.059.066.118.098.18.011.027.027.05.039.078A1.603 1.603 0 0 1 19.2 23.2zm3.2-2.398h-.938c0-.012-.008-.02-.012-.028a2.058 2.058 0 0 0-.176-.375c-.007-.02-.02-.035-.027-.05a2.919 2.919 0 0 0-.246-.332L20.988 20h1.41zm0 0"/>
</svg>
